build/svg/cmd/32/numberformatpercent.svg

<?xml version="1.0" encoding="UTF-8" standalone="no"?>
<svg
   xmlns:dc="http://purl.org/dc/elements/1.1/"
   xmlns:cc="http://creativecommons.org/ns#"
   xmlns:rdf="http://www.w3.org/1999/02/22-rdf-syntax-ns#"
   xmlns:svg="http://www.w3.org/2000/svg"
   xmlns="http://www.w3.org/2000/svg"
   xmlns:sodipodi="http://sodipodi.sourceforge.net/DTD/sodipodi-0.dtd"
   xmlns:inkscape="http://www.inkscape.org/namespaces/inkscape"
   viewBox="0 0 32 32"
   version="1.1"
   id="svg4"
   sodipodi:docname="numberformatpercent.svg"
   inkscape:version="0.92.5 (2060ec1f9f, 2020-04-08)"
   inkscape:export-filename="/home/jupiter007/Libreoffice yaru theme fullcolor/build/cmd/32/numberformatpercent.png"
   inkscape:export-xdpi="95"
   inkscape:export-ydpi="95">
  <metadata
     id="metadata10">
    <rdf:RDF>
      <cc:Work
         rdf:about="">
        <dc:format>image/svg+xml</dc:format>
        <dc:type
           rdf:resource="http://purl.org/dc/dcmitype/StillImage" />
      </cc:Work>
    </rdf:RDF>
  </metadata>
  <defs
     id="defs8" />
  <sodipodi:namedview
     pagecolor="#ffffff"
     bordercolor="#666666"
     borderopacity="1"
     objecttolerance="10"
     gridtolerance="10"
     guidetolerance="10"
     inkscape:pageopacity="0"
     inkscape:pageshadow="2"
     inkscape:window-width="1920"
     inkscape:window-height="1011"
     id="namedview6"
     showgrid="true"
     inkscape:zoom="20.85965"
     inkscape:cx="3.3871372"
     inkscape:cy="15.172966"
     inkscape:window-x="1920"
     inkscape:window-y="32"
     inkscape:window-maximized="1"
     inkscape:current-layer="svg4">
    <inkscape:grid
       type="xygrid"
       id="grid829" />
  </sodipodi:namedview>
  <path
     sodipodi:nodetypes="cccscsccccccccscscccccc"
     inkscape:connector-curvature="0"
     id="path4237-1"
     d="m 6.994116,2.9997083 c -1.2582,0.0145 -2.178891,-0.030604 -2.931641,0.3847656 -0.37637,0.20766 -0.673231,0.5593869 -0.837891,0.9980469 -0.16467,0.43867 -0.224609,0.9595875 -0.224609,1.6171875 V 7.487989 26.000293 c 0,0.657609 0.0599,1.178576 0.224609,1.617188 0.16468,0.438611 0.461531,0.788523 0.837891,0.996092 0.75272,0.415131 1.673541,0.37165 2.931641,0.386719 h 0.002 18.005859 0.0039 c 1.25819,-0.0145 2.178891,0.0306 2.931641,-0.384766 0.37637,-0.20766 0.673221,-0.559386 0.837891,-0.998045 0.164539,-0.438671 0.224618,-0.959579 0.224618,-1.617188 V 7.466505 5.9997083 c 0,-0.6576 -0.0599,-1.1785775 -0.224609,-1.6171875 -0.16468,-0.4386 -0.461531,-0.7885338 -0.837891,-0.9960937 -0.75277,-0.41513 -1.673601,-0.3716388 -2.931691,-0.3867188 h -0.002 -18.005859 z"
     style="font-style:normal;font-variant:normal;font-weight:normal;font-stretch:normal;font-size:15px;line-height:125%;font-family:Ubuntu;-inkscape-font-specification:Ubuntu;text-align:center;letter-spacing:0px;word-spacing:0px;writing-mode:lr-tb;text-anchor:middle;display:inline;opacity:0.6;fill:#000000;fill-opacity:1;stroke:none;stroke-width:0.99980211" />
  <path
     inkscape:connector-curvature="0"
     id="path1993"
     d="M 19.983344,4.0268931 C 18.426763,4.0376891 6.873354,4.0151411 5.323403,4.0656681 4.862174,4.1083361 4.307215,4.2720875 4.168063,4.7756349 3.949069,5.4109813 4.059649,6.109422 4.022267,6.757559 c -0.0078,2.297085 -0.02297,17.59643 0.02152,19.885781 0.0391,0.461929 0.202551,1.012665 0.698756,1.163665 0.632456,0.225082 1.284144,0.12274 1.935974,0.154298 1.424235,0.0068 12.850563,0.01102 14.27642,0.01131 1.704531,3.5e-4 3.408388,-0.005 5.10719,-0.01851 0.511911,-0.01201 1.183699,0.01993 1.584745,-0.405191 0.421097,-0.539783 0.287073,-1.268021 0.322745,-1.903787 0.01187,-2.444323 0.02769,-17.911097 -0.0219,-20.3567962 C 27.898441,4.8862905 27.777725,4.4253787 27.372578,4.2438556 26.704409,3.9497582 25.946373,4.0758367 25.246657,4.0382829 23.49225,4.0264803 21.737783,4.0257985 19.983344,4.0268931 Z"
     style="opacity:1;vector-effect:none;fill:#d85eca;fill-opacity:1;stroke:none;stroke-width:1;stroke-linecap:round;stroke-linejoin:bevel;stroke-miterlimit:4;stroke-dasharray:none;stroke-dashoffset:0;stroke-opacity:1"
     sodipodi:nodetypes="cccccccsccccccc" />
  <path
     style="opacity:1;fill:#ffffff;fill-opacity:1;stroke:none;stroke-width:8.77999973;stroke-linejoin:round;stroke-miterlimit:4;stroke-dasharray:none;stroke-opacity:1"
     d="M 11 9 C 9.338 9 8 10.338 8 12 L 8 13 C 8 14.662 9.338 16 11 16 L 12 16 C 13.662 16 15 14.662 15 13 L 15 12 C 15 10.338 13.662 9 12 9 L 11 9 z M 11.285156 11 L 11.714844 11 C 12.427129 11 13 11.572871 13 12.285156 L 13 12.714844 C 13 13.427129 12.427129 14 11.714844 14 L 11.285156 14 C 10.572871 14 10 13.427129 10 12.714844 L 10 12.285156 C 10 11.572871 10.572871 11 11.285156 11 z "
     id="rect819" />
  <path
     id="path824"
     d="m 20,16 c -1.662,0 -3,1.338 -3,3 v 1 c 0,1.662 1.338,3 3,3 h 1 c 1.662,0 3,-1.338 3,-3 v -1 c 0,-1.662 -1.338,-3 -3,-3 z m 0.285156,2 h 0.429688 C 21.427129,18 22,18.572871 22,19.285156 v 0.429688 C 22,20.427129 21.427129,21 20.714844,21 H 20.285156 C 19.572871,21 19,20.427129 19,19.714844 V 19.285156 C 19,18.572871 19.572871,18 20.285156,18 Z"
     style="opacity:1;fill:#ffffff;fill-opacity:1;stroke:none;stroke-width:8.77999973;stroke-linejoin:round;stroke-miterlimit:4;stroke-dasharray:none;stroke-opacity:1"
     inkscape:connector-curvature="0" />
  <rect
     style="opacity:1;fill:#ffffff;fill-opacity:1;stroke:none;stroke-width:9.38621426;stroke-linejoin:round;stroke-miterlimit:4;stroke-dasharray:none;stroke-opacity:1"
     id="rect826"
     width="2"
     height="16"
     x="21.627417"
     y="-8"
     ry="1.1428572"
     transform="rotate(45)" />
</svg>

<svg xmlns="http://www.w3.org/2000/svg" viewBox="0 0 32 32"><path d="M6.994 3c-1.258.014-2.179-.03-2.932.384a1.88 1.88 0 00-.837.999C3.06 4.82 3 5.343 3 6v20c0 .658.06 1.179.225 1.617.164.44.461.789.837.997.753.415 1.674.371 2.932.386h18.012c1.258-.014 2.179.03 2.932-.384a1.88 1.88 0 00.837-.999c.165-.438.225-.96.225-1.617V6c0-.658-.06-1.179-.225-1.617a1.875 1.875 0 00-.837-.997c-.753-.415-1.674-.371-2.932-.386H6.998z" style="line-height:125%;-inkscape-font-specification:Ubuntu;text-align:center" font-weight="400" font-size="15" font-family="Ubuntu" letter-spacing="0" word-spacing="0" text-anchor="middle" opacity=".6"/><path d="M19.983 4.027c-1.556.01-13.11-.012-14.66.039-.46.042-1.016.206-1.155.71-.219.635-.108 1.333-.146 1.982-.008 2.297-.023 17.596.022 19.885.039.462.202 1.013.699 1.164.632.225 1.284.123 1.936.154 1.424.007 12.85.011 14.276.012 1.704 0 3.408-.005 5.107-.019.512-.012 1.184.02 1.585-.405.421-.54.287-1.268.323-1.904.011-2.444.027-17.911-.022-20.357-.05-.402-.17-.863-.575-1.044-.669-.294-1.427-.168-2.126-.206a715.985 715.985 0 00-5.264-.011z" fill="#d85eca"/><path d="M11 9c-1.662 0-3 1.338-3 3v1c0 1.662 1.338 3 3 3h1c1.662 0 3-1.338 3-3v-1c0-1.662-1.338-3-3-3h-1zm.285 2h.43c.712 0 1.285.573 1.285 1.285v.43c0 .712-.573 1.285-1.285 1.285h-.43A1.282 1.282 0 0110 12.715v-.43c0-.712.573-1.285 1.285-1.285zM20 16c-1.662 0-3 1.338-3 3v1c0 1.662 1.338 3 3 3h1c1.662 0 3-1.338 3-3v-1c0-1.662-1.338-3-3-3zm.285 2h.43c.712 0 1.285.573 1.285 1.285v.43c0 .712-.573 1.285-1.285 1.285h-.43A1.282 1.282 0 0119 19.715v-.43c0-.712.573-1.285 1.285-1.285z" fill="#fff"/><rect width="2" height="16" x="21.627" y="-8" ry="1.143" transform="rotate(45)" fill="#fff"/></svg>
